!!!!SEGMENT: pl-sa--220-a-vi-24--002_hasse-johann-adolf--aura-beata-plaude.krn
!!!cenid: 17xx:387
!!!COM: Hasse, Johann Adolf
!!!COM-rismid: pe51928
!!!CDT: 1699/03/25-1783/12/16
!!!CNT: German
!!!OTL: Aura beata plaude
!!!PDT:
!!!AGN: Sacred
!!!SMS-siglum: PL-SA
!!!SMS-shelfmark: 220/A VI 24
!!!SMS-shelfwork: 002 W
!!!NIFC-rismid: 1001041287
!!!system-decoration: s1[(s2,s3)]s4
!!!key:
**kern	**fba	**dynam	**kern	**dynam	**kern	**dynam	**kern	**text
*part4	*part4	*part4	*part3	*part3	*part2	*part2	*part1	*part1
*staff4	*staff4	*staff4	*staff3	*	*staff2	*	*staff1	*staff1
*Iempty	*	*	*Ivioln	*	*Ivioln	*	*Ivox	*
*I"Fundamento	*	*	*I"Violino Secundo.	*	*I"Violino Primo.	*	*I"Canto	*
*I'Fund.	*	*	*I'V-no II	*	*I'V-no I	*	*I'C.	*
*clefF4	*	*	*clefG2	*	*clefG2	*	*clefC1	*
*k[f#c#]	*	*	*k[f#c#]	*	*k[f#c#]	*	*k[f#c#]	*
*D:	*	*	*D:	*	*D:	*	*D:	*
*M3/8	*	*	*M3/8	*	*M3/8	*	*M3/8	*
*>[A,B,A]	*	*	*>[A,B,A]	*	*>[A,B,A]	*	*>[A,B,A]	*
=1	=1	=1	=1	=1	=1	=1	=1	=1
*>A	*	*	*>A	*	*>A	*	*>A	*
*	*	*	*2\right	*	*	*	*	*
*	*	*	*Xtuplet	*	*Xtuplet	*	*Xtuplet	*
!LO:TX:a:i:t=Andantino	!	!	!	!	!LO:TX:a:i:t=Andantino	!	!LO:TX:a:Bi:t=Andantino Aria 2da.	!
!LO:TX:a:i:t=Aria 2da.	!	!	!LO:TX:a:i:t=Aria 2da.	!	!LO:TX:a:i:t=Aria 2da.	!	!	!
!LO:TX:a:t=P:mixed beam:problem	!	!	!	!	!	!	!	!
!	!	!	!	!	!	!	!LO:N:vis=00	!
8D/L	.	.	8a/	.	8a/	.	1.r	.
8d\	.	.	(>32ff#\KLL	.	(>32ff#\KLL	.	.	.
.	.	.	16.dd\JJ)	.	16.dd\JJ)	.	.	.
8G\J	6	.	(>32gg\KLL	.	(>32gg\KLL	.	.	.
.	.	.	16.ee\JJ)	.	16.ee\JJ)	.	.	.
=2	=2	=2	=2	=2	=2	=2	=2	=2
.	.	.	8qqdd/	.	(<8qqdd/	.	.	.
8A/L	3_	.	4cc#\	.	4cc#\)	.	.	.
8G/	.	.	.	.	.	.	.	.
8F#/J	6	.	8dd\	.	8dd\	.	.	.
=3	=3	=3	=3	=3	=3	=3	=3	=3
!LO:TX:a:t=P:mixed beam:problem	!	!	!	!	!	!	!	!
8G\L	3_	.	16g/KL	.	16b\KL	.	.	.
.	.	.	8g/	.	8b\	.	.	.
8BB/	.	.	.	.	.	.	.	.
.	.	.	8g/	.	8b\	.	.	.
8GG/J	X	.	.	.	.	.	.	.
.	.	.	(<32b/LL	.	(>32dd\LL	.	.	.
.	.	.	32g/JJJ)	.	32b\JJJ)	.	.	.
=4	=4	=4	=4	=4	=4	=4	=4	=4
!LO:TX:a:t=P:mixed beam:problem	!	!	!	!	!	!	!	!
.	.	.	.	.	8qqcc#/	.	.	.
8D\L	6 4	.	8gT>/L	.	8bT>\L	.	.	.
8DD/	5 3	.	8f#/J	.	8a\J	.	.	.
8F#\J	6	.	16r	.	16r	.	.	.
.	.	.	32r	.	32r	.	.	.
.	.	.	32dd\	.	32dd\	.	.	.
=5	=5	=5	=5	=5	=5	=5	=5	=5
!LO:TX:a:t=P:mixed beam:problem	!	!	!	!	!	!	!	!
!	!	!	!	!	!	!	!LO:N:vis=00	!
8E\L	7	.	16.ddT>\LL	.	16.ddT>\LL	.	1.r	.
.	.	.	(>64cc#\LL	.	(>64cc#\LL	.	.	.
.	.	.	64dd\JJJJ)	.	64dd\JJJJ)	.	.	.
8AA/	7	.	8ee\	.	8ee\	.	.	.
8C#/J	6 5	.	16r	.	16r	.	.	.
.	.	.	32r	.	32r	.	.	.
.	.	.	32g/	.	32g/	.	.	.
=6	=6	=6	=6	=6	=6	=6	=6	=6
8D\L	.	.	16.f#/LL	.	16.f#/LL	.	.	.
.	.	.	32g/JJk	.	32g/JK	.	.	.
8F#\	.	.	8a/	.	8a/J	.	.	.
8D\J	.	.	32r	.	32r	.	.	.
.	.	.	(>32aa\LLL	.	(>32aa\LLL	.	.	.
.	.	.	32gg\	.	32gg\	.	.	.
.	.	.	32ff#\JJJ)	.	32ff#\JJJ)	.	.	.
=7	=7	=7	=7	=7	=7	=7	=7	=7
4G\	6	.	16.ee\LL	.	16.ee\LL	.	.	.
.	.	.	32ff#\JJk	.	32ff#\JJk	.	.	.
.	.	.	8qqee/	.	8qqee/	.	.	.
.	.	.	4ddT>\	.	4dd\	.	.	.
8G#X\	5	.	.	.	.	.	.	.
=8	=8	=8	=8	=8	=8	=8	=8	=8
.	.	.	8qqdd/	.	(<8qqdd/	.	.	.
!LO:TX:a:t=P:mixed beam:problem	!	!	!	!	!	!	!	!
8A\L	.	.	4.cc#\	.	4.cc#\)	.	.	.
8AA/	.	.	.	.	.	.	.	.
8AA/J	.	.	.	.	.	.	.	.
!	!	!	!LO:LB:g=original	!	!LO:LB:g=original	!	!	!
=9	=9	=9	=9	=9	=9	=9	=9	=9
!	!	!	!	!	!	!	!LO:N:vis=00	!
4.AA/	5_ 3_	.	8a/	.	8a/	.	1.r	.
.	.	.	(>32gg\KLL	.	(>32gg\KLL	.	.	.
.	.	.	16.ee\JJ)	.	16.ee\JJ)	.	.	.
.	.	.	(>32ff#\KLL	.	(>32ff#\KLL	.	.	.
.	6 4	.	16.dd\JJ)	.	16.dd\JJ)	.	.	.
=10	=10	=10	=10	=10	=10	=10	=10	=10
.	.	.	8qqdd/	.	8qqdd/	.	.	.
8AA/	5	.	4cc#\	.	4cc#\	.	.	.
(>32Gn\KLL	4 2	.	.	.	.	.	.	.
16.E\)	.	.	.	.	.	.	.	.
(>32F#\K	6	.	8dd\	.	8dd\	.	.	.
16.D\JJ)	.	.	.	.	.	.	.	.
=11	=11	=11	=11	=11	=11	=11	=11	=11
8qqD/	.	.	.	.	.	.	.	.
!	!	!	!	!LO:DY:b:t=%s&colon;:rj	!	!LO:DY:b:t=%sia&colon;	!	!
4C#/	6	.	8a/	p	8a/	p	.	.
.	.	.	(>32gg\KLL	.	(>32gg\KLL	.	.	.
.	.	.	16.ee\)	.	16.ee\JJ)	.	.	.
8D/	.	.	(>32ff#\K	.	(>32ff#\KLL	.	.	.
.	.	.	16.dd\JJ)	.	16.dd\JJ)	.	.	.
!LO:LB:g=original	!	!	!	!	!	!	!	!
=12	=12	=12	=12	=12	=12	=12	=12	=12
.	.	.	8qqdd/	.	8qqdd/	.	.	.
8AA/	.	.	4cc#\	.	4cc#\	.	.	.
(>32G\KLL	2	.	.	.	.	.	.	.
16.E\)	.	.	.	.	.	.	.	.
(>32F#\K	6	.	8dd\	.	8dd\	.	.	.
16.D\JJ)	.	.	.	.	.	.	.	.
=13	=13	=13	=13	=13	=13	=13	=13	=13
8qqD/	.	.	.	.	.	.	.	.
!	!	!	!	!LO:DY:b	!	!LO:DY:b	!	!
!	!	!	!	!	!	!	!LO:N:vis=00	!
4C#/	6	.	8a/	f	8a/	f	1.r	.
.	.	.	(>32gg\KLL	.	(>32gg\KLL	.	.	.
.	.	.	16.ee\)	.	16.ee\JJ)	.	.	.
8D/	.	.	(>32ff#\K	.	(>32ff#\KLL	.	.	.
.	.	.	16.dd\JJ)	.	16.dd\JJ)	.	.	.
=14	=14	=14	=14	=14	=14	=14	=14	=14
!	!	!	!LO:TX:a:t=P:mixed beam:problem	!	!LO:TX:a:t=P:mixed beam:problem	!	!	!
8r	.	.	(>16a/LL	.	(>16a/LL	.	.	.
.	.	.	16aa\JJ)	.	16aa\JJ)	.	.	.
8C#/L	6	.	(>32gg\KLL	.	(>32gg\KLL	.	.	.
.	.	.	16.ee\)	.	16.ee\JJ)	.	.	.
8D/J	.	.	(>32ff#\K	.	(>32ff#\KLL	.	.	.
.	.	.	16.dd\JJ)	.	16.dd\JJ)	.	.	.
=15	=15	=15	=15	=15	=15	=15	=15	=15
!LO:TX:a:t=P:mixed beam:problem	!	!	!	!	!	!	!	!
8G\L	.	.	8bb\	.	8bb\	.	.	.
.	.	.	(<8qqdd/	.	8qqdd/	.	.	.
8A\	.	.	4cc#\)	.	4cc#\	.	.	.
8AA/J	.	.	.	.	.	.	.	.
=16	=16	=16	=16	=16	=16	=16	=16	=16
8D\L	.	.	(>24dd\LL	.	(>24dd\LL	.	.	.
.	.	.	24a\)	.	24a\)	.	.	.
.	.	.	24ff#`>\JJ	.	24ff#`>\JJ	.	.	.
8c#\	6	.	(>24ee\LL	.	(>24ee\LL	.	.	.
.	.	.	24a\)	.	24a\)	.	.	.
.	.	.	24gg`>\JJ	.	24gg`>\JJ	.	.	.
8d\J	.	.	(>24ff#\LL	.	(>24ff#\LL	.	.	.
.	.	.	24dd\)	.	24dd\)	.	.	.
.	.	.	24aa`>\JJ	.	24aa`>\JJ	.	.	.
!	!	!	!	!	!LO:LB:g=original	!	!	!
=17	=17	=17	=17	=17	=17	=17	=17	=17
!	!	!	!	!	!	!	!LO:N:vis=00	!
16.B\LL	6	.	(>24gg\LL	.	(>24gg\LL	.	1.r	.
.	.	.	24ff#\	.	24ff#\	.	.	.
.	.	.	24ee\JJ)	.	24ee\JJ)	.	.	.
32G\JJk	6	.	.	.	.	.	.	.
.	.	.	8qqdd/	.	8qqdd/	.	.	.
!LO:TX:a:t=P:mixed beam:problem	!	!	!	!	!	!	!	!
8A\L	4	.	4cc#\	.	4cc#\	.	.	.
8AA/J	3	.	.	.	.	.	.	.
!	!	!	!LO:LB:g=original	!	!	!	!	!
=18	=18	=18	=18	=18	=18	=18	=18	=18
!	!	!	!	!LO:DY:b	!	!LO:DY:b:t=%sia.	!	!
8D\L	.	.	(>24dd\LL	p	(>24dd\LL	p	.	.
.	.	.	24a\)	.	24a\)	.	.	.
.	.	.	24ff#`>\JJ	.	24ff#`>\JJ	.	.	.
8c#\	6	.	(>24ee\LL	.	(>24ee\LL	.	.	.
.	.	.	24a\)	.	24a\)	.	.	.
.	.	.	24gg`>\JJ	.	24gg`>\JJ	.	.	.
8d\J	.	.	(>24ff#\LL	.	(>24ff#\LL	.	.	.
.	.	.	24dd\)	.	24dd\)	.	.	.
.	.	.	24aa`>\JJ	.	24aa`>\JJ	.	.	.
=19	=19	=19	=19	=19	=19	=19	=19	=19
!LO:TX:a:t=P:mixed beam:problem	!	!	!	!	!	!	!	!
!	!	!	!	!LO:DY:b	!	!LO:DY:b	!	!
8G\L	.	.	(>24gg\LL	f	(>24bb\LL	f	.	.
.	.	.	24ff#\	.	24aa\	.	.	.
.	.	.	24ee\JJ)	.	24gg\JJ)	.	.	.
.	.	.	8qqdd/	.	8qqff#/	.	.	.
8A\	4	.	4cc#t>\	.	4eeT>\	.	.	.
8AA/J	3	.	.	.	.	.	.	.
=20	=20	=20	=20	=20	=20	=20	=20	=20
4D\	.	.	24dd\LL	.	24dd\LL	.	.	.
.	.	.	24a\	.	24a\	.	.	.
.	.	.	24f#\JJ	.	24f#\JJ	.	.	.
.	.	.	8qqe/	.	8qqe/	.	.	.
.	.	.	4d/	.	4d/	.	.	.
8r	.	.	.	.	.	.	.	.
=21||	=21||	=21||	=21||	=21||	=21||	=21||	=21||	=21||
*>B	*	*	*>B	*	*>B	*	*>B	*
!LO:TX:t=[segno]:problem:znak segno na kresce taktowej	!	!	!LO:TX:t=[segno]:problem:znak segno na kresce taktowej	!	!LO:TX:t=[segno]:problem:znak segno na kresce taktowej	!	!O:TX:t=[segno]:problem:zna segno na resce tatowej	!
!	!	!	!	!LO:DY:b	!	!LO:DY:b:t=%siano	!	!
(>32F#\KLL	6	.	8a/	p	8a/	p	8a\	Au-
16.D\JJ)	.	.	.	.	.	.	.	.
8d\L	.	.	(<32a/KLL	.	(>32ff#\KLL	.	(>32ff#\KLL	-ra
.	.	.	16.f#/)	.	16.dd\JJ)	.	16.dd\JJ)	.
8G\J	6	.	(<32b/K	.	(>32gg\KLL	.	(>32gg\KLL	bea-
.	.	.	16.g/JJ)	.	16.ee\JJ)	.	16.ee\JJ)	.
=22	=22	=22	=22	=22	=22	=22	=22	=22
.	.	.	8qqf#/	.	8qqdd/	.	8qqdd/	.
8r	.	.	4e/	.	4cc#\	.	4cc#\	-ta
8A\L	.	.	.	.	.	.	.	.
8F#\J	6	.	[<8d/	.	8dd\	.	8dd\	.
=23	=23	=23	=23	=23	=23	=23	=23	=23
!LO:TX:a:t=P:mixed beam:problem	!	!	!	!	!	!	!	!
8G\L	.	.	16d/KL]	.	16b\KL	.	16r	.
.	.	.	8g/	.	8b\	.	16b\	plau-
.	.	.	.	.	.	.	16qqb/LL	.
.	.	.	.	.	.	.	16qqcc#/JJ	.
8BB/	.	.	.	.	.	.	8.dd\	-de
.	.	.	8g/	.	8b\	.	.	.
8GG/J	.	.	.	.	.	.	.	.
.	.	.	16g/Jk	.	16b\Jk	.	(>32cc#\LLL	ju-
.	.	.	.	.	.	.	32b\JJJ)	.
!LO:LB:g=original	!	!	!	!	!	!	!	!
=24	=24	=24	=24	=24	=24	=24	=24	=24
!LO:TX:a:t=P:mixed beam:problem	!	!	!	!	!	!	!	!
8D\L	6 4	.	8gT>/L	.	8b\L	.	8b\	-cun-
8DD/	5 3	.	8f#/J	.	8a\J	.	8a\	-da
8F#\J	6	.	16r	.	16r	.	16r	.
.	.	.	32r	.	32r	.	16dd\	plau-
!	!	!	!	!LO:DY:b:t=poco %sor	!	!	!	!
.	.	.	32dd\	f	32dd\	.	.	.
!	!	!	!	!	!LO:LB:g=original	!	!	!
=25	=25	=25	=25	=25	=25	=25	=25	=25
!LO:TX:a:t=P:mixed beam:problem	!	!	!	!	!	!	!	!
!	!	!	!	!	!	!	!LO:TX:a:t=t	!
8E\L	7	.	16.ddT>\LL	.	16.ddT>\LL	.	8dd\	.
.	.	.	(>64cc#\LL	.	(64cc#\LL	.	.	.
.	.	.	64dd\JJJj)	.	64dd\JJJJ)	.	.	.
8AA/	7	.	8ee`>\	.	8ee`>\	.	8.ee\	-de
8C#/J	5	.	16r	.	16r	.	.	.
.	.	.	16e/	.	16g/	.	16g/	ju-
!	!	!	!LO:LB:g=original	!	!	!	!	!
=26	=26	=26	=26	=26	=26	=26	=26	=26
8.D\L	9 4	.	8e/L	.	8g/L	.	8g/	-cun-
.	.	.	8d/J	.	8f#/J	.	8f#/	-da
16d\L	8 3	.	.	.	.	.	.	.
16A\	.	.	8r	.	8r	.	8r	.
16F#\JJ	.	.	.	.	.	.	.	.
!	!	!	!	!	!	!	!LO:LB:g=original	!
=27	=27	=27	=27	=27	=27	=27	=27	=27
!	!	!	!	!LO:DY:b	!	!	!	!
8D\	.	.	(>32aa\KLL	p	(>32aa\KLL	.	(>32aa\KLL	Ve-
.	.	.	16.ff#\JJ)	.	16.ff#\JJ)	.	16.ff#\JJ)	.
8r	.	.	(>32ee\KLL	.	(>32ee\KLL	.	(>32ee\KLL	-ni
.	.	.	16.dd\JJ)	.	16.dd\JJ)	.	16.dd\JJ)	.
8r	.	.	(>32cc#\KLL	.	(>32cc#\KLL	.	(>32cc#\KLL	fa-
.	.	.	16.dd\JJ)	.	16.dd\JJ)	.	16.dd\JJ)	.
=28	=28	=28	=28	=28	=28	=28	=28	=28
.	.	.	8qqdd/	.	8qqdd/	.	8qqdd/	.
8F#\L	n5	.	4ccnT>\	.	4ccnT>\	.	4ccn\	-cun-
8D\	.	.	.	.	.	.	.	.
8G\J	3	.	8b\	.	8b\	.	8b\	-da
=29	=29	=29	=29	=29	=29	=29	=29	=29
8GG/	6	.	(>32bb\KLL	.	(>32bb\KLL	.	8r	.
.	.	.	16.ee\JJ)	.	16.ee\JJ)	.	.	.
8r	.	.	(>24gg\LL	.	(>32gg\LLL	.	32gg\LLL	Ve-
.	.	.	.	.	32ff#\J	.	(>32ff#\J	.
.	.	.	24ff#\	.	.	.	.	.
.	.	.	.	.	16ee\JJ)	.	16ee\)JJ	.
.	.	.	24ee\JJ)	.	.	.	.	.
8r	.	.	(>16dd#X\LL	.	(>16dd#X\LL	.	16dd#X\	-ni
.	.	.	16ee\JJ)	.	16ee\JJ)	.	16ee\	fa-
=30	=30	=30	=30	=30	=30	=30	=30	=30
.	.	.	8qqee/	.	8qqee/	.	8qqee/	.
8G#X\L	6 5	.	4ddn\	.	4ddn\	.	4ddn\	-cun-
8E\	.	.	.	.	.	.	.	.
8A\J	.	.	8cc#\	.	8cc#\	.	8cc#\	-da
=31	=31	=31	=31	=31	=31	=31	=31	=31
!	!	!	!	!	!	!LO:DY:b	!	!
[<4.E\	5_ #n_	.	8e/	.	8e/	p	8e/	ve-
.	.	.	(>32dd\KLL	.	(>32dd\KLL	.	(>32dd\KLL	-ni
.	.	.	16.b\JJ)	.	16.b\JJ)	.	16.b\JJ)	.
.	.	.	(>32cc#\KLL	.	(>32cc#\KLL	.	(>32cc#\KLL	ſe-
.	6 4	.	16.a\JJ)	.	16.a\JJ)	.	16.a\JJ)	.
=32	=32	=32	=32	=32	=32	=32	=32	=32
.	.	.	8qqa/	.	8qqa/	.	8qqa/	.
8E\L]	#	.	4g#X/	.	4g#X/	.	4g#X\	-re-
(>32d\KL	4 2	.	.	.	.	.	.	.
16.B\)	.	.	.	.	.	.	.	.
(>32c#\K	6	.	8a/	.	8a/	.	8a\	-na
16.A\JJ)	.	.	.	.	.	.	.	.
!	!	!	!	!	!LO:LB:g=original	!	!	!
=33	=33	=33	=33	=33	=33	=33	=33	=33
*	*^	*	*	*	*	*	*	*
8qqA/	.	.	.	.	.	.	.	.	.
4G#X\	6	5	.	8e/	.	8e/	.	8e/	ſe-
.	.	.	.	(>32dd\KLL	.	(>32dd\KLL	.	(>32dd\KLL	-re-
.	.	.	.	16.b\)	.	16.b\JJ)	.	16.b\JJ)	.
8A\	.	.	.	(>32cc#\K	.	(>32cc#\KLL	.	(>32cc#\KLL	-na
.	.	.	.	16.a\JJ)	.	16.a\JJ)	.	16.a\JJ)	.
!	!	!	!	!LO:LB:g=original	!	!	!	!LO:LB:g=original	!
*	*v	*v	*	*	*	*	*	*	*
=34	=34	=34	=34	=34	=34	=34	=34	=34
4D/	.	.	4.a/	.	16a\LL	.	16a\LL	bel-
.	.	.	.	.	16ff#\JJ	.	16ff#\JJ	.
.	.	.	.	.	8qqff#/	.	8qqff#/	.
.	.	.	.	.	4ee\	.	4ee\	-la
8C#/	6	.	.	.	.	.	.	.
=35	=35	=35	=35	=35	=35	=35	=35	=35
8D\L	.	.	(>32dd\KLL	.	(>32ff#\KLL	.	(>32ff#\KLL	la-
.	.	.	16.b\JJ)	.	16.dd\JJ)	.	16.dd\JJ)	.
8E\	6 4	.	(<32b/KLL	.	(>32dd\KLL	.	(>32dd\KLL	-ti-
.	.	.	16.a/JJ)	.	16.cc#\JJ)	.	16.cc#\JJ)	.
8E\J	5 #	.	(<32a/KLL	.	(>32cc#\KLL	.	(>32cc#\KLL	-ti
.	.	.	16.g#X/JJ)	.	16.b\JJ)	.	16.b\JJ)	.
!LO:LB:g=original	!	!	!	!	!	!	!	!
=36	=36	=36	=36	=36	=36	=36	=36	=36
!	!	!	!	!LO:DY:b:t=poco %sor	!	!	!	!
4A\	.	.	8e/	f	8cc#\	.	(>32cc#\LLL	-a-
.	.	.	.	.	.	.	32b\J	.
.	.	.	.	.	.	.	16a\JJ)	.
.	.	.	4ee\	.	4aa\	.	4aa\	.
8C#/	6	.	.	.	.	.	.	.
=37	=37	=37	=37	=37	=37	=37	=37	=37
!LO:TX:a:t=P:mixed beam:problem	!	!	!	!	!	!	!	!
.	.	.	8qqee/	.	16qqgg/	.	8qqgg/	.
8D\L	.	.	(>16dd\LL	.	16ff#\LL	.	16ff#\LL	-a-
.	.	.	32cc#\L	.	(>32ee\L	.	32ee\L	.
.	.	.	32b\JJJ)	.	32dd\JJJ)	.	32dd\JJJ	.
8E\	6 4	.	8a/L	.	8cc#\L	.	16cc#\LL	.
.	.	.	.	.	.	.	32b\L	.
.	.	.	.	.	.	.	32a\JJJ	.
.	.	.	.	.	.	.	8qqa/	.
!	!	!	!	!	!	!	!LO:TX:a:t=t	!
8EE/J	5 #	.	8g#X/J	.	8bT>\J	.	8b\	-ma-
=38	=38	=38	=38	=38	=38	=38	=38	=38
!LO:TX:a:t=P:mixed beam:problem	!	!	!	!	!	!	!	!
!	!	!	!	!LO:DY:b:t=fortiſsi	!	!LO:DY:b:rj	!	!
8AA/L	.	.	(>24cc#\LL	ff	(>24cc#\LL	f	4a\	-ta
.	.	.	24g#X\	.	24g#X\	.	.	.
.	.	.	24a\JJ)	.	24a\JJ)	.	.	.
8A\	.	.	(>24a\LL	.	(>24a\LL	.	.	.
.	.	.	24cc#\	.	24cc#\	.	.	.
.	.	.	24ee\JJ)	.	24ee\JJ)	.	.	.
8C#/J	6	.	(>24ee\LL	.	(>24ee\LL	.	8r	.
.	.	.	24a\	.	24a\	.	.	.
.	.	.	24aa\JJ)	.	24aa\JJ)	.	.	.
=39	=39	=39	=39	=39	=39	=39	=39	=39
!LO:TX:a:t=P:mixed beam:problem	!	!	!	!	!	!	!	!
.	.	.	16qqgg/	.	16qqgg/	.	.	.
!	!	!	!	!	!	!	!LO:N:vis=0	!
8D\L	.	.	(>24ff#\LL	.	16ff#\LL	.	2.r	.
.	.	.	24ee\	.	.	.	.	.
.	.	.	.	.	32ee\L	.	.	.
.	.	.	24dd\JJ)	.	.	.	.	.
.	.	.	.	.	32dd\JJJ	.	.	.
.	.	.	8qcc#/	.	8qqcc#/	.	.	.
8E\	4	.	4bT>\	.	4bT>\	.	.	.
8EE/J	#n	.	.	.	.	.	.	.
=40	=40	=40	=40	=40	=40	=40	=40	=40
!LO:TX:a:t=P:mixed beam:problem	!	!	!	!	!	!	!	!
16.AA/LL	.	.	4a/	.	4a/	.	.	.
32B\JJk	.	.	.	.	.	.	.	.
16F#\LL	.	.	.	.	.	.	.	.
16E\	.	.	.	.	.	.	.	.
16D\	6	.	8r	.	8r	.	.	.
16C#\JJ	6	.	.	.	.	.	.	.
=41	=41	=41	=41	=41	=41	=41	=41	=41
!	!	!	!	!	!	!LO:DY:b	!	!
8D\L	.	.	8r	.	8a/	p	8a\	Au-
!	!	!	!	!LO:DY:b:rj	!	!	!	!
8d\	.	.	(<32a/KLL	p	(>32ff#\KLL	.	(>32ff#\KLL	-ra
.	.	.	16.f#/JJ)	.	16.dd\JJ)	.	16.dd\JJ)	.
8G\J	6	.	(<32b/KLL	.	(>32gg\KLL	.	(>32gg\KLL	bea-
.	.	.	16.g/JJ)	.	16.ee\JJ)	.	16.ee\JJ)	.
!	!	!	!LO:LB:g=original	!	!LO:LB:g=original	!	!	!
=42	=42	=42	=42	=42	=42	=42	=42	=42
.	.	.	8qqf#/	.	8qqdd/	.	8qqdd/	.
8r	.	.	4e/	.	4cc#\	.	4cc#\	.
8A\L	.	.	.	.	.	.	.	.
8F#\J	6	.	8d/	.	8dd\	.	8dd\	-ta
!	!	!	!	!	!	!	!LO:LB:g=original	!
=43	=43	=43	=43	=43	=43	=43	=43	=43
!LO:TX:a:t=P:mixed beam:problem	!	!	!	!	!	!	!	!
8G\L	.	.	16g/KL	.	16b\KL	.	16r	.
.	.	.	8g/	.	8b\	.	16b\	plau-
.	.	.	.	.	.	.	16qqb/LL	.
.	.	.	.	.	.	.	16qqcc#/JJ	.
8BB/	.	.	.	.	.	.	8.dd\	-de
.	.	.	8g/	.	8b\	.	.	.
8GG/J	.	.	.	.	.	.	.	.
.	.	.	16g/Jk	.	16b\Jk	.	(>32cc#\LLL	ju-
.	.	.	.	.	.	.	32b\JJJ)	.
=44	=44	=44	=44	=44	=44	=44	=44	=44
.	.	.	.	.	.	.	8qqcc#/	.
!LO:TX:a:t=P:mixed beam:problem	!	!	!	!	!	!	!	!
!	!	!	!	!	!	!	!LO:TX:a:t=t	!
8D\L	6 4	.	8gT>/L	.	8bT>\L	.	8b\	-cun-
8DD/	5 3	.	8f#/J	.	8a\J	.	8a\	-da
8F#\J	6	.	16r	.	16r	.	16r	.
.	.	.	32r	.	32r	.	16dd\	plau-
.	.	.	32dd\	.	32dd\	.	.	.
=45	=45	=45	=45	=45	=45	=45	=45	=45
!LO:TX:a:t=P:mixed beam:problem	!	!	!	!	!	!	!	!
!	!	!	!	!	!	!	!LO:TX:a:t=t	!
8E\L	7	.	(>16.ddT>\LL	.	16.ddT\LL	.	16dd\LL	.
.	.	.	.	.	.	.	(32cc#\L	.
.	.	.	64cc#\LL	.	(>64cc#\LL	.	32dd\JJ)J	.
.	.	.	64dd\JJJJ)	.	64dd\JJJJ)	.	.	.
8AA/	7	.	8ee`>\	.	8ee`>\	.	8.ee\	-de
8C#/J	6 5	.	16r	.	16r	.	.	.
.	.	.	16g/	.	16g/	.	16g/	ju-
=46	=46	=46	=46	=46	=46	=46	=46	=46
.	.	.	.	.	.	.	16qqa/	.
!LO:TX:a:t=P:mixed beam:problem	!	!	!	!	!	!	!	!
8.D/L	9 4	.	8eT>/L	.	8g/L	.	8g/	-cun-
.	8 3	.	8d/J	.	8f#/J	.	8f#/	-da,
16d\L	.	.	.	.	.	.	.	.
16A\	.	.	8r	.	8r	.	8r	.
16F#\JJ	.	.	.	.	.	.	.	.
!LO:LB:g=original	!	!	!	!	!	!	!	!
=47	=47	=47	=47	=47	=47	=47	=47	=47
4D/	.	.	8r	.	(>32ff#\KLL	.	(>32ff#\KLL	ve-
.	.	.	.	.	16.dd\JJ)	.	16.dd\JJ)	.
.	.	.	8r	.	(>32cc#\KLL	.	(>32cc#\KLL	-ni
.	.	.	.	.	16.b\JJ)	.	16.b\JJ)	.
8d\	6	.	8f#/	.	(<32a#X/KLL	.	(>32a#X\KLL	fa-
.	.	.	.	.	16.b/JJ)	.	16.b\JJ)	.
=48	=48	=48	=48	=48	=48	=48	=48	=48
.	.	.	.	.	8qqa/	.	8qqan/	.
8e\L	#_	.	4.e/	.	4g#X/	.	4g#X\	-cun-
8d\	.	.	.	.	.	.	.	.
8cn\J	6	.	.	.	8a/	.	8a\	-da
=49	=49	=49	=49	=49	=49	=49	=49	=49
4Cn/	6	.	8e/	.	(>32ee\KLL	.	(>32ee\KLL	ſe-
.	.	.	.	.	16.ccn\JJ)	.	16.ccn\JJ)	.
.	.	.	8r	.	(<32b/KLL	.	(>32b\KLL	-re-
.	.	.	.	.	16.a/JJ)	.	16.a\JJ)	.
8cn\	.	.	8r	.	(<32g#X/KLL	.	(>32g#X\KLL	-na
.	.	.	.	.	16.a/JJ)	.	16.a\JJ)	.
!	!	!	!	!	!LO:LB:g=original	!	!LO:LB:g=original	!
=50	=50	=50	=50	=50	=50	=50	=50	=50
.	.	.	.	.	8qqgn/	.	8qqgn/	.
8d\L	3_	.	4.d/	.	4f#/	.	4f#/	bel-
8cn\	.	.	.	.	.	.	.	.
8B-X\J	6	.	.	.	8g/	.	8g/	-la
=51	=51	=51	=51	=51	=51	=51	=51	=51
4.BB-X/	6	.	(>32dd\KLL	.	(>32dd\KLL	.	(>32dd\KLL	ve-
.	.	.	16.b-X\JJ)	.	16.b-X\JJ)	.	16.b-X\JJ)	.
.	.	.	(<32a/KLL	.	(<32a/KLL	.	(>32a\KLL	-ni
.	.	.	16.g/JJ)	.	16.g/JJ)	.	16.g\JJ)	.
.	.	.	(<32f#/KLL	.	(<32f#/KLL	.	32f#/KLL	fa-
.	.	.	16.g/JJ)	.	16.g/JJ)	.	16.g/JJ	.
!	!	!	!LO:LB:g=original	!	!	!	!	!
=52	=52	=52	=52	=52	=52	=52	=52	=52
!LO:TX:a:t=P:mixed beam:problem	!	!	!	!	!	!	!	!
8AA/L	#_	.	4.g/	.	(<16g/LL	.	(>16g\LL	-cun-
.	.	.	.	.	16cc#X/JJ)	.	16cc#X\JJ)	.
8A\	X	.	.	.	4cc#\	.	4cc#\	-da
8G\J	.	.	.	.	.	.	.	.
=53	=53	=53	=53	=53	=53	=53	=53	=53
8F#X\L	6	.	(>8a\L	.	(>8dd\L	.	8dd\	ſe-
.	.	.	.	.	.	.	16qqee/LL	.
.	.	.	.	.	.	.	16qqff#/JJ	.
8E\	6\	.	8.cc#\)	.	8.gg\)	.	8.gg\	-re-
8D\J	.	.	.	.	.	.	.	.
.	.	.	16dd\Jk	.	16ff#\Jk	.	16ff#\	-na
=54	=54	=54	=54	=54	=54	=54	=54	=54
.	.	.	.	.	.	.	16qqgg/	.
!LO:TX:a:t=P:mixed beam:problem	!	!	!	!	!	!	!	!
8A\L	6 4	.	8ddT>\L	.	8ff#t>\	.	8ff#\	bel-
8AA/	5 3	.	8cc#\	.	4ee\	.	8ee\	-la
8C#/J	6	.	8a\J	.	.	.	8r	.
=55	=55	=55	=55	=55	=55	=55	=55	=55
4.D/	5	.	(>32ff#\KLL	.	(>32ff#\KLL	.	(>32ff#\KLL	ve-
.	.	.	16.dd\JJ)	.	16.dd\JJ)	.	16.dd\JJ)	.
.	6	.	(>32cc#\KLL	.	(>32cc#\KLL	.	(>32cc#\KLL	.
.	.	.	16.b\JJ)	.	16.b\JJ)	.	16.b\JJ)	.
.	.	.	(<32a#X/KLL	.	(<32a#X/KLL	.	(>32a#X\KLL	.
.	.	.	16.b/JJ)	.	16.b/JJ)	.	16.b\JJ)	.
=56	=56	=56	=56	=56	=56	=56	=56	=56
.	.	.	8qqan/	.	(<8qqan/	.	8qqan/	.
8E\L	#	.	4.g#X/	.	4.g#X/)	.	4.g#X\	-ni
8E\	.	.	.	.	.	.	.	.
8E\J	.	.	.	.	.	.	.	.
!	!	!	!	!	!	!	!LO:LB:g=original	!
=57	=57	=57	=57	=57	=57	=57	=57	=57
.	.	.	.	.	8qdd/	.	16qqff#/	.
8E\L	6 4	.	4.e/	.	16cc#\LL	.	(>16ee\LL	la-
.	.	.	.	.	(>32b\L	.	32dd\L	.
.	.	.	.	.	32a\JJJ)	.	32cc#\JJJ)	.
.	.	.	.	.	8qqa/	.	8qqcc#/	.
8E\	5 #	.	.	.	4g#X/	.	8.b\	-ti-
8E\J	.	.	.	.	.	.	.	.
.	.	.	.	.	.	.	16dd\	-ti-
!LO:LB:g=original	!	!	!	!	!	!	!	!
=58	=58	=58	=58	=58	=58	=58	=58	=58
.	.	.	16qqff#/	.	16qqff#/	.	16qqdd/	.
8E\L	6 4	.	16ee\LL	.	16ee\LL	.	(>16cc#\LL	-a-
.	.	.	(>32dd\L	.	(>32dd\L	.	32b\L	.
.	.	.	32cc#\JJJ)	.	32cc#\JJJ)	.	32a\JJJ)	.
.	.	.	8qqcc#/	.	8qqcc#/	.	8qqa/	.
8E\	5 #	.	8.b\L	.	8.b\L	.	4g#X\	.
8E\J	.	.	.	.	.	.	.	.
.	.	.	16dd\Jk	.	16dd\Jk	.	.	.
!	!	!	!	!	!LO:LB:g=original	!	!	!
=59	=59	=59	=59	=59	=59	=59	=59	=59
.	.	.	8qqdd/	.	16qqdd/	.	8qqff#/	.
8E\L	6 4	.	16cc#\LL	.	16cc#\LL	.	16ee\LL	-a-
.	.	.	(>32b\L	.	(>32b\L	.	32dd\L	.
.	.	.	32a\JJJ)	.	32a\JJJ)	.	32cc#\JJJ	.
.	.	.	8qqa/	.	8qqa/	.	8qqcc#/	.
8E\	7 #	.	4g#X/	.	4g#X/	.	8.b\L	-ma-
8E\J	.	.	.	.	.	.	.	.
.	.	.	.	.	.	.	16dd\Jk	.
=60	=60	=60	=60	=60	=60	=60	=60	=60
.	.	.	8qqff#/	.	16qqff#/	.	16qqdd/	.
8E\L	6 4	.	16ee\LL	.	16ee\LL	.	16cc#\LL	.
.	.	.	(>32dd\L	.	(>32dd\L	.	(>32b\L	.
.	.	.	32cc#\JJJ)	.	32cc#\JJJ)	.	32a\JJJ)	.
.	.	.	8qqcc#/	.	8qqcc#/	.	8qqa/	.
8E\	5 #	.	4b\	.	4b\	.	4g#X\	-ta
8E\J	.	.	.	.	.	.	.	.
=61	=61	=61	=61	=61	=61	=61	=61	=61
8AA/L	.	.	(>8ee\L	.	[>4.aa\	.	16r	.
.	.	.	.	.	.	.	16a\	a-
!LO:TX:b:i:t=taſto	!	!	!	!	!	!	!	!
.	.	.	.	.	.	.	16qqdd/	.
8AA/	.	.	8cc#\	.	.	.	16cc#\LL	-ma-
.	.	.	.	.	.	.	32b\L	.
.	.	.	.	.	.	.	32a\JJJ	.
.	.	.	.	.	.	.	16qqdd/	.
8AA/J	.	.	8a\J)	.	.	.	16cc#\LL	.
.	.	.	.	.	.	.	32b\L	.
.	.	.	.	.	.	.	32a\JJJ	.
!	!	!	!LO:LB:g=original	!	!	!	!	!
=62	=62	=62	=62	=62	=62	=62	=62	=62
!	!	!	!LO:SIC:s=:v	!	!LO:SIC:s=:v	!	!LO:SIC:s=:v	!
8AA/L	.	.	[<4.b#X/	.	4.aa\]	.	8b\	.
8AA/	.	.	.	.	.	.	24b\LL	.
.	.	.	.	.	.	.	24dd\	.
.	.	.	.	.	.	.	24cc#\JJ	.
.	.	.	.	.	.	.	8qqee/	.
8AA/J	.	.	.	.	.	.	24dd\LL	.
.	.	.	.	.	.	.	24cc#\	.
.	.	.	.	.	.	.	24b\JJ	.
=63	=63	=63	=63	=63	=63	=63	=63	=63
8AA/L	.	.	4.b#/]	.	[>4.gg\	.	4.ggn\	.
8AA/	.	.	.	.	.	.	.	.
8AA/J	.	.	.	.	.	.	.	.
!	!	!	!	!	!	!	!LO:LB:g=original	!
=64	=64	=64	=64	=64	=64	=64	=64	=64
8AA/L	7 5	.	[<4.a/	.	4.gg\]	.	[>8a\	.
8AA/	.	.	.	.	.	.	24a\LL]	.
.	.	.	.	.	.	.	24cc#\	.
.	.	.	.	.	.	.	24b\JJ	.
.	.	.	.	.	.	.	16qqdd/	.
8AA/J	.	.	.	.	.	.	24cc#\LL	.
.	.	.	.	.	.	.	24b\	.
.	.	.	.	.	.	.	24a\JJ	.
=65	=65	=65	=65	=65	=65	=65	=65	=65
8AA/L	6 4	.	4.a/]	.	[>4.ff#\	.	4.ff#\	.
8AA/	.	.	.	.	.	.	.	.
8AA/J	.	.	.	.	.	.	.	.
=66	=66	=66	=66	=66	=66	=66	=66	=66
8AA/L	7 5_	.	[<4.g/	.	4.ff#\]	.	[>8g\	.
8AA/	.	.	.	.	.	.	24g\LL]	.
.	.	.	.	.	.	.	24b\	.
.	.	.	.	.	.	.	24a\JJ	.
.	.	.	.	.	.	.	16qqcc#/	.
8AA/J	.	.	.	.	.	.	24b\LL	.
.	.	.	.	.	.	.	24a\	.
.	.	.	.	.	.	.	24g\JJ	.
=67	=67	=67	=67	=67	=67	=67	=67	=67
8AA/L	.	.	4.g/]	.	4.ee\	.	[>8ee\	.
8AA/	.	.	.	.	.	.	24ee\LL]	.
.	.	.	.	.	.	.	24dd\	.
.	.	.	.	.	.	.	24cc#\JJ	.
8AA/J	X	.	.	.	.	.	24b\LL	.
.	.	.	.	.	.	.	24a\	.
.	.	.	.	.	.	.	24g\JJ	.
=68	=68	=68	=68	=68	=68	=68	=68	=68
.	.	.	8qqg/	.	8qqee/	.	8qqg/	.
4D\	.	.	4f#/	.	8.dd\L	.	8.f#\L	.
.	.	.	.	.	(>16a\L	.	16a\L	.
8r	.	.	8r	.	16dd\	.	16dd\	.
.	.	.	.	.	16ff#\JJ)	.	16ff#\JJ	.
=69	=69	=69	=69	=69	=69	=69	=69	=69
8FF#/L	6	.	4.dd\	.	8aa\	.	8aa\L	.
8GG/	3	.	.	.	4bb\	.	16gg\L	.
.	.	.	.	.	.	.	16ff#\	.
8GG#X/J	6 5	.	.	.	.	.	16ee\	.
.	.	.	.	.	.	.	16dd\JJ	.
=70	=70	=70	=70	=70	=70	=70	=70	=70
8AA/L	.	.	4a/	.	4a/	.	16.cc#\LL	.
.	.	.	.	.	.	.	32b\JKJ	.
8AA/	.	.	.	.	.	.	8a\	-ta
8AA/J	.	.	8r	.	8r	.	8r	.
!LO:LB:g=original	!	!	!	!	!	!	!	!
=71	=71	=71	=71	=71	=71	=71	=71	=71
*	*^	*	*	*	*	*	*	*
!	!	!	!	!	!	!	!LO:DY:b:t=poco %sorte	!LO:TX:a:t=1	!
!	!	!	!	!	!	!	!	!LO:N:vis=1	!
4.AA/	5 3	6 4	.	8a/	.	8a/	f	4.r	.
.	.	.	.	(>32gg\KLL	.	(>32gg\KLL	.	.	.
.	.	.	.	16.ee\JJ)	.	16.ee\JJ)	.	.	.
.	.	.	.	(>32ff#\KLL	.	(>32ff#\KLL	.	.	.
.	.	.	.	16.dd\JJ)	.	16.dd\JJ)	.	.	.
!	!	!	!	!	!	!LO:LB:g=original	!	!LO:LB:g=original	!
=72	=72	=72	=72	=72	=72	=72	=72	=72	=72
.	.	.	.	8qqdd/	.	8qqdd/	.	.	.
4.AA/	5 3	6 4	.	4cc#\	.	4cc#\	.	8a\	au-
.	.	.	.	.	.	.	.	(>32gg\KLL	-ra
.	.	.	.	.	.	.	.	16.ee\JJ)	.
!	!	!	!	!LO:TX:a:t=P:mixed beam:problem	!	!	!	!	!
.	.	.	.	(>16dd\LL	.	8dd\	.	(>32ff#\KLL	bea-
.	.	.	.	.	.	.	.	16.dd\JJ)	.
.	.	.	.	16f#/JJ)	.	.	.	.	.
*	*v	*v	*	*	*	*	*	*	*
=73	=73	=73	=73	=73	=73	=73	=73	=73
.	.	.	8qqf#/	.	.	.	8qqdd/	.
!	!	!	!	!	!	!LO:DY:b	!	!
8AA/	.	.	4e/	.	4.a/	p	4cc#\	-ta
(>32G\KLL	4 2	.	.	.	.	.	.	.
16.E\)	.	.	.	.	.	.	.	.
(>32F#\K	6	.	(<32a/KLL	.	.	.	8dd\	.
16.D\JJ)	.	.	16.f#/JJ)	.	.	.	.	.
=74	=74	=74	=74	=74	=74	=74	=74	=74
8qqD/	.	.	.	.	.	.	.	.
4C#/	6	.	8e/L	.	8a/	.	8a\	plau-
.	.	.	8A/J	.	(>32gg\KLL	.	(>32gg\KLL	-de
.	.	.	.	.	16.ee\JJ)	.	16.ee\JJ)	.
8D/	.	.	(<32a/KLL	.	(>32ff#\KLL	.	(>32ff#\KLL	ju-
.	.	.	16.f#/JJ)	.	16.dd\JJ)	.	16.dd\JJ)	.
!	!	!	!LO:LB:g=original	!	!	!	!	!
=75	=75	=75	=75	=75	=75	=75	=75	=75
.	.	.	8qqf#/	.	8qqdd/	.	8qqdd/	.
8AA/	3_	.	4e/	.	4cc#\	.	4cc#\	-cun-
(>32G\KLL	.	.	.	.	.	.	.	.
16.E\)	.	.	.	.	.	.	.	.
(>32F#\K	6	.	(<32a/KLL	.	8dd\	.	8dd\	-da
16.D\JJ)	.	.	16.f#/JJ)	.	.	.	.	.
=76	=76	=76	=76	=76	=76	=76	=76	=76
8qqD/	.	.	.	.	.	.	.	.
!	!	!	!	!	!LO:TX:a:t=P:mixed beam:problem	!	!	!
!	!	!	!	!	!	!LO:DY:b	!	!
4C#/	6	.	8e/L	.	(>32a/KLL	p	32a\KLL	ve-
.	.	.	.	.	16.aa\JJ)	.	16.aa\JJ	.
.	.	.	8A/J	.	(>32gg\KLL	.	(>32gg\KLL	-ni
.	.	.	.	.	16.ee\JJ)	.	16.ee\JJ)	.
8D/	.	.	(<32a/KLL	.	(>32ff#\KLL	.	(>32ff#\KLL	fa-
.	.	.	16.f#/JJ)	.	16.dd\JJ)	.	16.dd\JJ)	.
=77	=77	=77	=77	=77	=77	=77	=77	=77
!LO:TX:a:t=P:mixed beam:problem	!	!	!	!	!	!	!	!
8A\L	.	.	8c#/	.	8ee\	.	(>32ee\KLL	-cun-
.	.	.	.	.	.	.	16.cc#\JJ)	.
.	.	.	.	.	.	.	8qqb/	.
8AA/	.	.	(>32cc#\KLL	.	(>32cc#\KLL	.	4a\	-da
.	.	.	16.a\JJ)	.	16.a\JJ)	.	.	.
8BB/J	.	.	(>32dd\KLL	.	(>32dd\KLL	.	.	.
.	.	.	16.a\JJ)	.	16.a\JJ)	.	.	.
=78	=78	=78	=78	=78	=78	=78	=78	=78
8C#/	6	.	8ee\	.	8ee\	.	16r	.
.	.	.	.	.	.	.	16ee\	ſe-
8r	.	.	8r	.	8r	.	(>16dd\LL	-re-
.	.	.	.	.	.	.	16cc#\JJ)	.
8r	.	.	8r	.	8r	.	(>16b\LL	-na
.	.	.	.	.	.	.	16a\JJ)	.
!	!	!	!	!	!	!	!LO:LB:g=original	!
=79	=79	=79	=79	=79	=79	=79	=79	=79
.	.	.	.	.	8qqa/	.	8qqa/	.
8r	.	.	(<4.a/	.	4g/	.	4g/	bel-
8c#\L	5	.	.	.	.	.	.	.
8d\J	.	.	.	.	8f#/	.	8f#/	-la
=80	=80	=80	=80	=80	=80	=80	=80	=80
!LO:TX:a:t=P:mixed beam:problem	!	!	!	!	!LO:TX:a:t=P:mixed beam:problem	!	!LO:TX:a:t=P:mixed beam:problem	!
8G\L	.	.	8b/L)	.	16e/LL	.	16e/LL	ve-
.	.	.	.	.	16gg\JJ	.	16gg\JJ	.
8A\	6 4	.	(<16a/L	.	16ff#\LL	.	16ff#\LL	.
.	.	.	16g/)	.	16ee\JJ	.	16ee\JJ	.
8AA/J	5 3	.	(<16f#/	.	16dd\LL	.	16dd\LL	.
.	.	.	16e/JJ)	.	16cc#\JJ	.	16cc#\JJ	.
=81	=81	=81	=81	=81	=81	=81	=81	=81
.	.	.	.	.	8qqcc#/	.	8qqcc#/	.
4.BB/	.	.	4.d/	.	4dd\	.	4.dd\	-ni
.	.	.	.	.	8r	.	.	.
!LO:LB:g=original	!	!	!	!	!LO:LB:g=original	!	!	!
=82	=82	=82	=82	=82	=82	=82	=82	=82
!LO:TX:a:t=1	!	!	!	!	!	!	!	!
!LO:N:vis=1	!	!	!LO:N:vis=1	!	!	!	!	!
4.r	.	.	4.r	.	16r	.	16r	.
.	.	.	.	.	16ee\	.	16ee\	la-
.	.	.	.	.	(>16dd\LL	.	16dd\	-ti-
.	.	.	.	.	16cc#\	.	16cc#\	-ti-
.	.	.	.	.	16b\	.	16b\	-a
.	.	.	.	.	16a\JJ)	.	16a\	a-
=83	=83	=83	=83	=83	=83	=83	=83	=83
.	.	.	.	.	8qqa/	.	8qqa/	.
4C#/	5	.	4ee\	.	4g/	.	4g/	-ma-
8D/	.	.	8dd\	.	8f#/	.	8f#/	-ta
=84	=84	=84	=84	=84	=84	=84	=84	=84
*	*^	*	*	*	*	*	*	*
!	!	!	!	!	!	!LO:TX:a:t=P:mixed beam:problem	!	!LO:TX:a:t=P:mixed beam:problem	!
8G\	.	.	.	(<16e/LL	.	(>16e/LL	.	16e/LL	ve-
.	.	.	.	16b/JJ)	.	16gg\JJ)	.	16gg\JJ	.
4A\	6 4	5 3	.	(<16a/LL	.	16ff#\LL	.	16ff#\LL	.
.	.	.	.	16g/)	.	16ee\JJ	.	16ee\JJ	.
.	.	.	.	(<16f#/	.	16dd\LL	.	16dd\LL	.
.	.	.	.	16e/JJ)	.	16cc#\JJ	.	16cc#\JJ	.
*	*v	*v	*	*	*	*	*	*	*
=85	=85	=85	=85	=85	=85	=85	=85	=85
.	.	.	.	.	8qqcc#/	.	8qqcc#/	.
8r	.	.	4.f#/	.	4.dd\	.	4dd\	-ni
8B\L	.	.	.	.	.	.	.	.
8F#\J	6	.	.	.	.	.	8r	.
!	!	!	!LO:LB:g=original	!	!	!	!LO:LB:g=original	!
=86	=86	=86	=86	=86	=86	=86	=86	=86
!LO:TX:a:t=P:mixed beam:problem	!	!	!	!	!	!	!	!
!	!	!	!	!LO:DY:b	!	!	!	!
8G\L	.	.	(>16b\LL	f	(>16b\LL	.	16b\LL	ve-
.	.	.	16gg\)	.	16bb\JJ)	.	16bb\JJ	.
8A\	6 4	.	(>16ff#\	.	(>16aa\LL	.	16aa\LL	.
.	.	.	16ee\)	.	16gg\JJ)	.	16gg\JJ	.
8AA/J	5 3	.	(>16dd\	.	(>16ff#\LL	.	16ff#\LL	.
.	.	.	16cc#\JJ)	.	16ee\JJ)	.	16ee\JJ	.
=87	=87	=87	=87	=87	=87	=87	=87	=87
.	.	.	.	.	.	.	8qqee/	.
8D\L	.	.	(>24dd\LL	.	24dd\LL	.	4dd\	-ni
.	.	.	24ddd\)	.	(>24ddd\	.	.	.
.	.	.	24ccc#\JJ	.	24ccc#\JJ)	.	.	.
8G\	.	.	(>24bb\LL	.	(>24bb\LL	.	.	.
.	.	.	24aa\	.	24aa\	.	.	.
.	.	.	24gg\JJ)	.	24gg\JJ)	.	.	.
8G#X\J	6	.	(>24ff#\LL	.	(>24ff#\LL	.	8r	.
.	.	.	24ee\	.	24ee\	.	.	.
.	.	.	24dd\JJ)	.	24dd\JJ)	.	.	.
=88	=88	=88	=88	=88	=88	=88	=88	=88
.	.	.	8qqdd/	.	8qqdd/	.	.	.
!	!	!	!	!	!	!	!LO:N:vis=00	!
8A\L	.	.	4.cc#\	.	4.cc#\	.	1.r	.
8A\	.	.	.	.	.	.	.	.
8A\J	.	.	.	.	.	.	.	.
=89	=89	=89	=89	=89	=89	=89	=89	=89
4.A\	.	.	8a/	.	8a/	.	.	.
.	.	.	(>32gg\KLL	.	(>32gg\KLL	.	.	.
.	.	.	16.ee\)	.	16.ee\JJ)	.	.	.
.	.	.	(>32ff#\K	.	(>32ff#\KLL	.	.	.
.	.	.	16.dd\JJ)	.	16.dd\JJ)	.	.	.
=90	=90	=90	=90	=90	=90	=90	=90	=90
.	.	.	8qqdd/	.	8qqdd/	.	.	.
8AA/	.	.	4cc#\	.	4cc#\	.	.	.
32Gn\KLL	4 2_	.	.	.	.	.	.	.
16.E\	2	.	.	.	.	.	.	.
32F#\K	6	.	8dd\	.	8dd\	.	.	.
16.D\JJ	.	.	.	.	.	.	.	.
!	!	!	!	!	!LO:LB:g=original	!	!	!
=91	=91	=91	=91	=91	=91	=91	=91	=91
8qqD/	.	.	.	.	.	.	.	.
!	!	!	!	!LO:DY:b	!	!	!	!
4C#/	6	.	8a/	p	8a/	.	.	.
.	.	.	(>32gg\KLL	.	(>32gg\KLL	.	.	.
.	.	.	16.ee\)	.	16.ee\JJ)	.	.	.
8D/	.	.	(>32ff#\K	.	(>32ff#\KLL	.	.	.
.	.	.	16.dd\JJ)	.	16.dd\JJ)	.	.	.
=92	=92	=92	=92	=92	=92	=92	=92	=92
.	.	.	8qqdd/	.	8qqdd/	.	.	.
!	!	!	!	!	!	!	!LO:N:vis=00	!
8AA/	.	.	4cc#\	.	4cc#\	.	1.r	.
(>32G\KLL	4 2	.	.	.	.	.	.	.
16.E\)	.	.	.	.	.	.	.	.
(>32F#\K	6	.	8dd\	.	8dd\	.	.	.
16.D\JJ)	.	.	.	.	.	.	.	.
!LO:LB:g=original	!	!	!	!	!	!	!	!
=93	=93	=93	=93	=93	=93	=93	=93	=93
8qqD/	.	.	.	.	.	.	.	.
!	!	!	!	!LO:DY:b	!	!	!	!
4C#/	6	.	8a/	f	8a/	.	.	.
.	.	.	(>32gg\KLL	.	(>32gg\KLL	.	.	.
.	.	.	16.ee\)	.	16.ee\JJ)	.	.	.
8D/	.	.	(>32ff#\K	.	(>32ff#\KLL	.	.	.
.	.	.	16.dd\JJ)	.	16.dd\JJ)	.	.	.
!	!	!	!LO:LB:g=original	!	!	!	!	!
=94	=94	=94	=94	=94	=94	=94	=94	=94
!	!	!	!LO:TX:a:t=P:mixed beam:problem	!	!LO:TX:a:t=P:mixed beam:problem	!	!	!
8r	.	.	(>32a/KLL	.	(>32a/KLL	.	.	.
.	.	.	16.aa\JJ)	.	16.aa\JJ)	.	.	.
8C#/L	5	.	(>32gg\KLL	.	(>32gg\KLL	.	.	.
.	.	.	16.ee\)	.	16.ee\JJ)	.	.	.
8D/J	.	.	(>32ff#\K	.	(>32ff#\KLL	.	.	.
.	.	.	16.dd\JJ)	.	16.dd\JJ)	.	.	.
=95	=95	=95	=95	=95	=95	=95	=95	=95
!LO:TX:a:t=P:mixed beam:problem	!	!	!	!	!	!	!	!
8G\L	.	.	8bb\	.	8bb\	.	.	.
.	.	.	8qqdd/	.	8qqdd/	.	.	.
8A\	4	.	4cc#\	.	4cc#\	.	.	.
8AA/J	3	.	.	.	.	.	.	.
=96	=96	=96	=96	=96	=96	=96	=96	=96
!LO:TX:a:t=P:mixed beam:problem	!	!	!	!	!	!	!	!
!	!	!	!	!	!	!	!LO:N:vis=00	!
8D/L	.	.	(>24dd\LL	.	(>24dd\LL	.	1.r	.
.	.	.	24a\)	.	24a\)	.	.	.
.	.	.	24ff#`>\JJ	.	24ff#`>\JJ	.	.	.
8c#\	5	.	(>24ee\LL	.	(>24ee\LL	.	.	.
.	.	.	24a\)	.	24a\)	.	.	.
.	.	.	24gg`>\JJ	.	24gg`>\JJ	.	.	.
8d\J	.	.	(>24ff#\LL	.	(>24ff#\LL	.	.	.
.	.	.	24dd\)	.	24dd\)	.	.	.
.	.	.	24aa`>\JJ	.	24aa`>\JJ	.	.	.
=97	=97	=97	=97	=97	=97	=97	=97	=97
16.B\LL	.	.	(>24gg\LL	.	(>24gg\LL	.	.	.
.	.	.	24ff#\	.	24ff#\	.	.	.
.	.	.	24ee\JJ)	.	24ee\JJ)	.	.	.
32G\JJk	6	.	.	.	.	.	.	.
!LO:TX:a:t=P:mixed beam:problem	!	!	!	!	!	!	!	!
.	.	.	8qqdd/	.	8qqdd/	.	.	.
8A\L	4	.	4cc#\	.	4cc#t>\	.	.	.
8AA/J	3	.	.	.	.	.	.	.
!	!	!	!	!	!LO:LB:g=original	!	!	!
=98	=98	=98	=98	=98	=98	=98	=98	=98
!LO:TX:a:t=P:mixed beam:problem	!	!	!	!	!	!	!	!
!	!	!	!	!LO:DY:b:t=%sia.:rj	!	!	!	!
8D/L	.	.	(>24dd\LL	p	(>24dd\LL	.	.	.
.	.	.	24a\)	.	24a\)	.	.	.
.	.	.	24ff#`>\JJ	.	24ff#`>\JJ	.	.	.
8c#\	5	.	(>24ee\LL	.	(>24ee\LL	.	.	.
.	.	.	24a\)	.	24a\)	.	.	.
.	.	.	24gg`>\JJ	.	24gg`>\JJ	.	.	.
8d\J	.	.	(>24ff#\LL	.	(>24ff#\LL	.	.	.
.	.	.	24dd\)	.	24dd\)	.	.	.
.	.	.	24aa`>\JJ	.	24aa`>\JJ	.	.	.
=99	=99	=99	=99	=99	=99	=99	=99	=99
!LO:TX:a:t=P:mixed beam:problem	!	!	!	!	!	!	!	!
!	!	!	!	!LO:DY:b	!	!	!	!
8G\L	.	.	(>24gg\LL	f	(>24bb\LL	.	.	.
.	.	.	24ff#\	.	24aa\	.	.	.
.	.	.	24ee\JJ)	.	24gg\JJ)	.	.	.
.	.	.	8qqdd/	.	8qqff#/	.	.	.
8A\	4	.	4cc#t\	.	4eeT>\	.	.	.
8AA/J	3	.	.	.	.	.	.	.
=100	=100	=100	=100	=100	=100	=100	=100	=100
!	!	!	!LO:TX:a:t=P:mixed beam:problem	!	!LO:TX:a:t=P:mixed beam:problem	!	!	!
!	!	!	!	!	!	!	!LO:N:vis=1	!
4D/	.	.	8dd\L	.	8dd\L	.	4.r	.
.	.	.	8d/J	.	8d/J	.	.	.
8r;>;<	.	.	8r	.	8r	.	.	.
*k[cancel]	*	*	*k[cancel]	*	*k[cancel]	*	*k[cancel]	*
!	!	!	!LO:LB:g=original	!	!	!	!	!
=101||	=101||	=101||	=101||;>;<	=101||	=101||;>;<	=101||	=101||	=101||
*k[b-]	*	*	*k[b-]	*	*k[b-]	*	*k[b-]	*
!LO:TX:a:t=P:mixed beam:problem	!	!	!LO:TX:a:t=P:mixed beam:problem	!	!LO:TX:a:t=P:mixed beam:problem	!	!	!
!	!	!	!	!LO:DY:b	!	!LO:DY:b:t=%siano	!	!
8D/L	.	.	(<8f/L	p	(>8a/L	p	8a\	Di-
8d\	.	.	8ff\)	.	8ff\)	.	8ff\	-vi-
8c\J	6	.	8ee\J	.	8ee`>\J	.	16ee\	-ni
.	.	.	.	.	.	.	16ee\	ar-
!LO:LB:g=original	!	!	!	!	!	!	!	!
=102	=102	=102	=102	=102	=102	=102	=102	=102
.	.	.	.	.	8qqee/	.	16qqee/	.
8.B-\L	3_	.	8.dd\L	.	16.ddT>\LL	.	16dd\LL	-do-
.	.	.	.	.	.	.	16cc#X\JJ	.
.	.	.	.	.	32cc#X\JJk	.	.	.
.	.	.	.	.	8qqcc#/	.	8qqcc#/	.
.	.	.	.	.	4dd\	.	4dd\	-ris
(>32A\LL	.	.	(>32cc\LL	.	.	.	.	.
32G\J	.	.	32b-\JJJ)	.	.	.	.	.
16F\)	6	.	(<16a/LL	.	.	.	.	.
16E\JJ	.	.	16g/JJ)	.	.	.	.	.
=103	=103	=103	=103	=103	=103	=103	=103	=103
16F\LL	6	.	(<16a/LL	.	(>32dd\KLL	.	(>16dd\LL	o-
.	.	.	.	.	16.b-\JJ)	.	.	.
16G\JJ	3	.	16g/JJ)	.	.	.	16b-\JJ)	.
!LO:TX:a:t=P:mixed beam:problem	!	!	!	!	!	!	!	!
8A\L	6 4	.	(<16f/LL	.	(<32a/KLL	.	(>16a\LL	-ri-
.	.	.	.	.	16.g/JJ)	.	.	.
.	.	.	16e/JJ)	.	.	.	16g\JJ)	.
8AA/J	5 #n	.	(<16d/LL	.	(<32f/KLL	.	(<16f/LL	-tur
.	.	.	.	.	16.e/JJ)	.	.	.
.	.	.	16c#X/JJ)	.	.	.	16e/JJ)	.
!	!	!	!	!	!	!	!LO:LB:g=original	!
=104	=104	=104	=104	=104	=104	=104	=104	=104
8D\L	3_	.	8d/	.	16.fT>/LL	.	16.f/LL	ſtel-
.	.	.	.	.	32e/JJk	.	32e/JKJ	.
8F\	X	.	4a/	.	8d/	.	8d/	-la
8E\J	.	.	.	.	8r	.	8r	.
!	!	!	!	!	!LO:LB:g=original	!	!	!
=105	=105	=105	=105	=105	=105	=105	=105	=105
4.D\	6	.	[<4.b-/	.	8b-\	.	8b-\	ſplen-
.	.	.	.	.	8.ffT>\L	.	(>16b-\LL	-det
.	.	.	.	.	.	.	16dd\)JJ	.
.	.	.	.	.	.	.	(>16dd\LL	a-
.	.	.	.	.	(>32ee\LL	.	16ff\JJ)	.
.	.	.	.	.	32ff\JJJ)	.	.	.
=106	=106	=106	=106	=106	=106	=106	=106	=106
*	*^	*	*	*	*	*	*	*
4.C/	7	6	.	8b-/]	.	4.ee\	.	(>16ee\LL	-mo-
.	.	.	.	.	.	.	.	16cc\JJ	.
.	.	.	.	.	.	.	.	8qqb-/)	.
.	.	.	.	[<4a/	.	.	.	4a\	-ris
*	*v	*v	*	*	*	*	*	*	*
=107	=107	=107	=107	=107	=107	=107	=107	=107
4BB-/	.	.	8a/]	.	4.dd\	.	16r	.
.	.	.	.	.	.	.	16dd\	pax
.	.	.	8g/L	.	.	.	8.dd\	ſus-
8BBn/	5	.	[<8f/J	.	.	.	.	.
.	.	.	.	.	.	.	16f/	-pi-
=108	=108	=108	=108	=108	=108	=108	=108	=108
.	.	.	.	.	.	.	16qqg/	.
8C/L	.	.	8f/]	.	4.cc\	.	8f/	-ra-
8C/	.	.	4e/	.	.	.	8e/	-ta
8C/J	.	.	.	.	.	.	8r	.
=109	=109	=109	=109	=109	=109	=109	=109	=109
*	*^	*	*	*	*	*	*	*
4.C/	7 5	6 4	.	8c/	.	8c/	.	8B-/	ſplen-
.	.	.	.	(<32b-/LLk	.	(<32b-/KLL	.	(>32b-\KLL	.
.	.	.	.	16.g/JJ)	.	16.g/JJ)	.	16.g\)JJ	-det
.	.	.	.	(<32a/KLL	.	(<32a/KLL	.	(>32a\KLL	a-
.	.	.	.	16.f/JJ)	.	16.f/JJ)	.	16.f\JJ)	.
*	*v	*v	*	*	*	*	*	*	*
=110	=110	=110	=110	=110	=110	=110	=110	=110
.	.	.	8qqf/	.	8qqf/	.	8qqf/	.
8C/	3_	.	4e/	.	4e/	.	4e/	-mo-
(>32B-\KLL	.	.	.	.	.	.	.	.
16.G\)	.	.	.	.	.	.	.	.
(>32A\K	6	.	8f/	.	8f/	.	8f/	-ris
16.F\JJ)	.	.	.	.	.	.	.	.
!	!	!	!LO:LB:g=original	!	!	!	!LO:LB:g=original	!
=111	=111	=111	=111	=111	=111	=111	=111	=111
8qqF/	.	.	.	.	.	.	.	.
!	!	!	!LO:TX:a:t=P:mixed beam:problem	!	!LO:TX:a:t=P:mixed beam:problem	!	!LO:TX:a:t=P:mixed beam:problem	!
4E\	6	.	(>16c/LL	.	(>16c/LL	.	(>32c/KLL	pax
.	.	.	.	.	.	.	16.cc\JJ)	.
.	.	.	16cc\JJ)	.	16cc\JJ)	.	.	.
.	.	.	(<16b-/LL	.	(<16b-/LL	.	(>32b-\KLL	ſus-
.	.	.	.	.	.	.	16.g\JJ)	.
.	.	.	16g/JJ)	.	16g/JJ)	.	.	.
8F\	.	.	(<16a/LL	.	(<16a/LL	.	(>32a\KLL	-pi-
.	.	.	.	.	.	.	16.f\)JJ	.
.	.	.	16f/JJ)	.	16f/JJ)	.	.	.
=112	=112	=112	=112	=112	=112	=112	=112	=112
.	.	.	(<8qqf/	.	8qqf/	.	8qqf/	.
!LO:TX:a:t=P:mixed beam:problem	!	!	!	!	!	!	!	!
16C/LL	3_	.	4e/)	.	4e/	.	4e/	-ra-
16c\	.	.	.	.	.	.	.	.
16B-\	.	.	.	.	.	.	.	.
16G\	.	.	.	.	.	.	.	.
16A\	6	.	8f/	.	8f/	.	8f/	-ta
16F\JJ	.	.	.	.	.	.	.	.
!LO:LB:g=original	!	!	!	!	!	!	!	!
=113	=113	=113	=113	=113	=113	=113	=113	=113
8qqF/	.	.	.	.	.	.	.	.
!	!	!	!LO:TX:a:t=P:mixed beam:problem	!	!LO:TX:a:t=P:mixed beam:problem	!	!	!
4E\	6	.	(>16c/LL	.	(>16c/LL	.	16r	.
.	.	.	16cc\JJ)	.	16cc\JJ)	.	16cc\	pax
.	.	.	(<16b-/LL	.	(<16b-/LL	.	(>32b-\KLL	ſus-
.	.	.	.	.	.	.	16.g\JJ)	.
.	.	.	16g/JJ)	.	16g/JJ)	.	.	.
8F\	.	.	(<16a/LL	.	(<16a/LL	.	(>32a\KLL	-pi-
.	.	.	.	.	.	.	16.f\JJ)	.
.	.	.	16f/JJ)	.	16f/JJ)	.	.	.
=114	=114	=114	=114	=114	=114	=114	=114	=114
!	!	!	!	!LO:DY:b:t=poco %sor&colon;	!	!	!	!
16r	.	.	4.f/	f	4.dd\	.	(>4.dd\	-ra-
16BB-\LL	3_	.	.	.	.	.	.	.
16D\	.	.	.	.	.	.	.	.
16F\	.	.	.	.	.	.	.	.
16B-\	X	.	.	.	.	.	.	.
16A\JJ	.	.	.	.	.	.	.	.
=115	=115	=115	=115	=115	=115	=115	=115	=115
16G\LL	6_	.	4b-/	.	4.ee\	.	4.ee\	.
16C\	.	.	.	.	.	.	.	.
16E\	.	.	.	.	.	.	.	.
16G\	.	.	.	.	.	.	.	.
16c\	.	.	8g/	.	.	.	.	.
16B-\JJ	X	.	.	.	.	.	.	.
!	!	!	!	!	!LO:LB:g=original	!	!	!
=116	=116	=116	=116	=116	=116	=116	=116	=116
!	!	!	!	!LO:DY:b	!	!	!	!
4A\	6	.	4cc\	p	8ff\L	.	8ff\)	.
.	.	.	.	.	(>16ee\L	.	16ee\LL	.
.	.	.	.	.	16dd\)	.	16dd\	.
8G\	6	.	8e/	.	(>16cc\	.	16cc\	.
.	.	.	.	.	16b-\JJ)	.	16b-\JJ	.
=117	=117	=117	=117	=117	=117	=117	=117	=117
!LO:TX:a:t=P:mixed beam:problem	!	!	!	!	!	!	!	!
8F\L	.	.	16.f/LL	.	16.a/LL	.	16.a\LL	.
.	.	.	32g/JJk	.	32b-/JJk	.	32b-\JJk	.
.	.	.	8qqf/	.	8qqa/	.	8qqa/	.
!	!	!	!	!	!	!	!LO:TX:a:t=t	!
8C\	4	.	4et>/	.	4gT>/	.	4g\	.
8CC/J	3	.	.	.	.	.	.	.
=118	=118	=118	=118	=118	=118	=118	=118	=118
!LO:TX:a:t=P:mixed beam:problem	!	!	!	!	!	!	!	!
(>16FF/LL	.	.	4f/	.	4f/	.	4f/	-ta
16F\JJ)	.	.	.	.	.	.	.	.
(>16F\LL	.	.	.	.	.	.	.	.
16E\)	.	.	.	.	.	.	.	.
(>16E\	.	.	8r	.	8r	.	8r	.
16D\JJ)	.	.	.	.	.	.	.	.
!	!	!	!	!	!	!	!LO:LB:g=original	!
=119	=119	=119	=119	=119	=119	=119	=119	=119
4.D/	6	.	4.b-/	.	(>16b-\LL	.	(>16b-\LL	Di-
.	.	.	.	.	16dd\JJ)	.	16dd\JJ)	.
.	.	.	.	.	(>16dd\LL	.	(>16dd\LL	-vi-
.	.	.	.	.	16ee\JJ)	.	16ee\)JJ	.
.	.	.	.	.	(>16ee\LL	.	16ee\	-ni
.	.	.	.	.	16ff\JJ)	.	16ff\	ar-
=120	=120	=120	=120	=120	=120	=120	=120	=120
4.C#X/	6	.	(<16b-/LL	.	4.ee\	.	16ee\LL	-do-
.	.	.	16g#X/JJ)	.	.	.	16g#X\JJ	.
.	.	.	8qqg#/	.	.	.	8qqg#/	.
.	.	.	[<4a/	.	.	.	4a\	-ris
!	!	!	!LO:LB:g=original	!	!	!	!	!
=121	=121	=121	=121	=121	=121	=121	=121	=121
4.Cn/	+4r -3	.	4.a/_<	.	8ee-X\	.	(>16a\LL	o-
.	.	.	.	.	.	.	16cc\JJ)	.
.	.	.	.	.	(>16ee-\LL	.	(>16cc\LL	-ri-
.	.	.	.	.	16dd\JJ)	.	16dd\JJ)	.
.	.	.	.	.	(>16dd\LL	.	(>16dd\LL	-tur
.	.	.	.	.	16ee-X\JJ)	.	16ee-X\JJ)	.
=122	=122	=122	=122	=122	=122	=122	=122	=122
!	!	!	!	!	!	!	!LO:TX:a:t=P:mixed beam:problem	!
4.BBn/	6	.	(<16a/LL]	.	4.dd\	.	16dd\LL	ſtel-
.	.	.	16f#X/JJ)	.	.	.	16f#X/JJ	.
.	.	.	8qqf#/	.	.	.	8qqf#/	.
.	.	.	4g/	.	.	.	4g/	-la
!LO:LB:g=original	!	!	!	!	!	!	!	!
=123	=123	=123	=123	=123	=123	=123	=123	=123
4.BB-X/	6	.	4g/	.	4.dd\	.	16r	.
.	.	.	.	.	.	.	16g/	ſplen-
.	.	.	.	.	.	.	8gg\	-det
.	.	.	8g#X/	.	.	.	8ee\	a-
=124	=124	=124	=124	=124	=124	=124	=124	=124
.	.	.	.	.	8qqdd/	.	8qqdd/	.
[<4.AA/	#	.	[<4.a/	.	[<4.cc#X\	.	[>4cc#X;>\	-mo-
.	.	.	.	.	.	.	16cc#\LL]	.
.	.	.	.	.	.	.	16bn\JJ	.
!	!	!	!	!	!	!	!LO:LB:g=original	!
=125	=125	=125	=125	=125	=125	=125	=125	=125
4AA/]	.	.	4a/]	.	4cc#\]	.	4a\	-ris
8r	.	.	8r	.	8r	.	8a\	pax
=126	=126	=126	=126	=126	=126	=126	=126	=126
8D\L	.	.	16r	.	16r	.	4.dd\	ſus-
!	!	!	!LO:TX:a:t=P:w źródle staccato wygląda jak falująca linia:problem	!	!LO:TX:a:t=P:w źródle staccato wygląda jak falująca linia:problem	!	!	!
.	.	.	16dd'>\LL	.	16ff'>\LL	.	.	.
8d\	.	.	16dd'>\	.	16ff'>\	.	.	.
.	.	.	16dd'>\	.	16ff'>\	.	.	.
8D\J	.	.	16dd'>\	.	16ff'>\	.	.	.
.	.	.	16dd'>\JJ	.	16ff'>\JJ	.	.	.
!	!	!	!	!	!LO:LB:g=original	!	!	!
=127	=127	=127	=127	=127	=127	=127	=127	=127
8C\L	+4r	.	16r	.	16r	.	4.dd\	-pi-
!	!	!	!LO:TX:a:t=P:w źródle staccato wygląda jak falująca linia:problem	!	!	!	!	!
.	.	.	16dd'>\LL	.	16ff#X\	.	.	.
8c\	.	.	16dd'>\	.	8ff#t>\L	.	.	.
.	.	.	16dd'>\	.	.	.	.	.
8C\J	.	.	16dd'>\	.	8ff#t>\J	.	.	.
.	.	.	16dd'>\JJ	.	.	.	.	.
=128	=128	=128	=128	=128	=128	=128	=128	=128
!LO:TX:a:t=P:mixed beam:problem	!	!	!	!	!	!	!	!
8BBn/L	6	.	16r	.	16r	.	4.dd\	-ra-
!	!	!	!LO:TX:a:t=P:w źródle staccato wygląda jak falująca linia:problem	!	!LO:TX:a:t=P:w źródle staccato wygląda jak falująca linia:problem	!	!	!
.	.	.	16dd'>\LL	.	16gg'>\LL	.	.	.
!LO:SIC:s=8B:v	!	!	!	!	!	!	!	!
8B-\	.	.	16dd'>\	.	16gg'>\	.	.	.
.	.	.	16dd'>\	.	16gg'>\	.	.	.
8BB/J	.	.	16dd'>\	.	16gg'>\	.	.	.
.	.	.	16dd'>\JJ	.	16gg'>\JJ	.	.	.
=129	=129	=129	=129	=129	=129	=129	=129	=129
8BB-X/L	6\	.	16r	.	16r	.	4.dd\	.
!	!	!	!LO:TX:a:t=P:w źródle staccato wygląda jak falująca linia:problem	!	!	!	!	!
.	.	.	16dd'>\LL	.	16gg#X\	.	.	.
8B-\	.	.	16dd'>\	.	8gg#t>\L	.	.	.
.	.	.	16dd'>\	.	.	.	.	.
8BB-/J	.	.	16dd'>\	.	8gg#t>\J	.	.	.
.	.	.	16dd'>\JJ	.	.	.	.	.
=130	=130	=130	=130	=130	=130	=130	=130	=130
*	*^	*	*	*	*	*	*	*
2.AA;</	6 4	5 #n	.	2dd;>\	.	4.aa;>\	.	4.dd;\	.
.	.	.	.	.	.	.	.	8qqdd/	.
=131-	=131-	=131-	=131-	=131-	=131-	=131-	=131-	=131	=131
.	.	.	.	.	.	8ryy	.	4ee\	.
.	.	.	.	4cc#X\	.	4ryy	.	.	.
.	.	.	.	.	.	.	.	8qqee/	.
.	.	.	.	.	.	.	.	8dd\	.
!	!	!	!	!LO:LB:g=original	!	!	!	!	!
*	*v	*v	*	*	*	*	*	*	*
=132	=132	=132	=132	=132	=132	=132	=132	=132
*k[f#c#]	*	*	*k[f#c#]	*	*k[f#c#]	*	*	*
*	*	*	*clefG2	*	*	*	*	*
!	!	!LO:DY:b:rj	!	!LO:DY:b:t=fortiſ&colon;	!	!LO:DY:b:t=%sorte	!	!
8D\L	.	f	8a/	ff	8a/	f	4dd\	-ta
8d\	.	.	(>32ff#\KLL	.	(>32ff#\KLL	.	.	.
.	.	.	16.dd\JJ)	.	16.dd\JJ)	.	.	.
8G\J	6	.	(>32gg\KLL	.	(>32gg\KLL	.	8r	.
.	.	.	16.ee\JJ)	.	16.ee\JJ)	.	.	.
=133	=133	=133	=133	=133	=133	=133	=133	=133
*	*	*	*	*	*	*	*k[f#c#]	*
.	.	.	8qqdd/	.	8qqdd/	.	.	.
!	!	!	!	!	!	!	!LO:N:vis=00	!
8A\L	3_	.	4cc#\	.	4cc#\	.	1.r	.
8G\	.	.	.	.	.	.	.	.
8F#\J	6	.	8dd\	.	8dd\	.	.	.
=134	=134	=134	=134	=134	=134	=134	=134	=134
!	!	!	!	!	!	!	!LO:SIC:o=7:v	!
!LO:TX:a:t=P:mixed beam:problem	!	!	!	!	!	!	!	!
!	!	!	!	!	!LO:TX:a:t=P:cross-measure beam:problem	!	!	!
l8G\L	3_	.	16g/KL	.	16b\KL	.	.	.
.	.	.	8g/	.	8b\	.	.	.
8BB/	.	.	.	.	.	.	.	.
.	.	.	8g/	.	8b\	.	.	.
8GG/J	X	.	.	.	.	.	.	.
.	.	.	.	.	16qqdd/	.	.	.
.	.	.	(>32b/LL	.	16b\K	.	.	.
.	.	.	32g/JJJ)	.	.	.	.	.
!LO:LB:g=original	!	!	!	!	!	!	!	!
=135	=135	=135	=135	=135	=135	=135	=135	=135
!LO:TX:a:t=P:mixed beam:problem	!	!	!	!	!	!	!	!
8D\L	6 4	.	8gT>/L	.	8bT>\	.	.	.
8DD/	5 3	.	8f#/J	.	8a\J	.	.	.
8F#\J	6	.	16r	.	16r	.	.	.
.	.	.	16dd\	.	16dd\	.	.	.
!	!	!	!	!	!LO:LB:g=original	!	!	!
=136	=136	=136	=136	=136	=136	=136	=136	=136
!LO:TX:a:t=P:mixed beam:problem	!	!	!	!	!	!	!	!
8E\L	7	.	16.ddT>\LL	.	16.ddT>\LL	.	.	.
.	.	.	(>64cc#\LL	.	(64cc#\LL	.	.	.
.	.	.	64dd\JJJJ)	.	64dd\JJJJ)	.	.	.
8AA/	7	.	8ee`>\	.	8ee`>\	.	.	.
8C#/J	5	.	16r	.	16r	.	.	.
.	.	.	16g/	.	16g/	.	.	.
=137	=137	=137	=137	=137	=137	=137	=137	=137
!	!	!	!	!	!	!	!LO:N:vis=0	!
8D\L	.	.	(<16.f#t>/LL	.	16.f#/LL	.	2.r	.
.	.	.	32g/JJK)	.	32g/JJK	.	.	.
8F#\	.	.	8a/	.	8a/	.	.	.
8D\J	.	.	32r	.	32r	.	.	.
.	.	.	(>32aa\LLL	.	(>32aa\LLL	.	.	.
.	.	.	32gg\	.	32gg\	.	.	.
.	.	.	32ff#\JJJ)	.	32ff#\JJJ)	.	.	.
=138	=138	=138	=138	=138	=138	=138	=138	=138
4G\	6	.	(>16.eeT>\LL	.	16.eeT>\LL	.	.	.
.	.	.	32ff#\JJk)	.	32ff#\JJk	.	.	.
.	.	.	8qqee/	.	8qqee/	.	.	.
.	.	.	4ddT>\	.	4ddT>\	.	.	.
8G#X\	5	.	.	.	.	.	.	.
=139	=139	=139	=139	=139	=139	=139	=139	=139
.	.	.	.	.	8qqdd/	.	.	.
!	!	!	!	!	!	!	!LO:N:vis=1	!
4.A\	.	.	4.cc#\	.	4.cc#\	.	4.r	.
*	*	*	*tuplet	*	*tuplet	*	*tuplet	*
*	*	*	*2\left	*	*	*	*	*
!LO:TX:a:Bi:t=Dal Segno.	!	!	!LO:TX:a:Bi:t=Dal Segno.	!	!LO:TX:a:Bi:t=Dal Segno.	!	!LO:TX:a:Bi:t=Dal Segno.	!
!LO:TX:t=[segno]:problem:znak segno na kresce taktowej	!	!	!LO:TX:t=[segno]:problem:znak segno na kresce taktowej	!	!LO:TX:t=[segno]:problem:znak segno na kresce taktowej	!	!LO:TX:t=[segno]:problem:znak segno na kresce taktowej	!
==	==	==	==	==	==	==	==	==
*-	*-	*-	*-	*-	*-	*-	*-	*-
!!title: @{OTL};
!!!RDF**kern: > = above
!!!RDF**kern: < = below
!!!RDF**dynam: f = "for", fontstyle="italic"
!!!RDF**dynam: p = "pia" , fontstyle="italic"
!!!EED: Wojciech Jakubiak-Danek
!!!EST: 2020-10-11
!!!URL-scan: http://bc.bdsandomierz.pl/dlibra/publication/1576/edition/1544/content
!!!ONB-nifc:
!!!AIN: 1 empty 2 violn 1 vox
!!!ENC: Andrzej Gręziak
!!!END: 2020-05-03
